X: 69
T: Star of the County Down
M: 3/4
K: C
L: 1/8
EG |: "Am" A4 AB | "F" A3 G A2 | "C" c3 d ec | "G" d4 cd | "Am" e3 d c2 |
|1 A3 G E2 | "G" G6 | "(Em)" G4 cB :|2 "G(Em)!" A4 G2 | "Am" A6 | A4 e2 ||
"C" g4 e2 | e3 d c2 | "G" d4 e2 | "Em" d4 cd | "Am" e3 d c2 |
A3 G E2 | ("Em" G6 | G2) c2 B2 | "Am" A4 AB | "F" A3 G A2 |
"C" c3 d ec | "G" d4 cd | "Am" e3 d c2 | "G(Em)!" A4 G2 | ("Am" A6 | A4) |]

